X:1
T:Title
%%score ( 1 2 ) 3
L:1/8
Q:1/4=95
M:4/4
K:Ab
V:1 treble nm="Grand Piano, Soprano"
V:2 treble 
V:3 bass nm="Choir Pad, He That Winneth Souls"
V:1
 [CE]>[CE] [DF][DG] [CA][DG][EA][FB] | [Ec]2 [DB]2 [CA]4 | [EB]>[E=A] [EB][Ec] [Ed][Ec][DB][CA] | %3
w: By~John~Millard~Harris * * * * * * *|||
 [=Dc]2 [DB]2 [EB]4 | [Ec]>[Ed] [Ae][Af] [Ae][Ec][EB][EA] | [DF]2 [Fd]2 [Fd]4 | %6
w: |||
 [Ec]>[CE] [EA]<[Ed] [Ec]2 [DB]2 | [CA]6 z2 | [CE]>E D-<[DG] A-[EA] [EB]2 | %9
w: |||
 c->[Ec-] [Fc-]>[Cc-] [Ec]4 | [Fd]>d dd [Fd]2 A-[=EA] | c8 | [Ae]>[Ae] [Ae][Af] [Ae][Ec][EB][EA] | %13
w: ||||
 [DF]2 [Fd]2 [Fd]4 | [Ec]>[CE] [EA]<[Ed] [Ec]2 [DB]2 | [CA]8 |] %16
w: |||
V:2
 x8 | x8 | x8 | x8 | x8 | x8 | x8 | x8 | z2 .F2 .C2 z2 | E2 z2 z4 | z2 F2 z2 .=E2 | E>E F>C .E4 | %12
 x8 | x8 | x8 | x8 |] %16
V:3
 [A,,A,]>[A,,A,] [A,,A,][A,,A,] [A,,E,][B,,B,][C,A,][D,A,] | [E,A,]2 [E,G,]2 [A,,A,]4 | %2
 [E,G,]>[E,_G,] [E,=G,][E,A,] [E,B,][E,A,][E,G,][F,A,] | [B,,A,]2 [B,,A,]2 [E,G,]4 | %4
 A,>[A,B,] [A,C][A,D] [A,C][A,,A,][B,,G,][C,A,] | [D,A,]2 [D,A,]2 [D,A,]4 | %6
 [E,A,]>[E,A,] [E,C]<[E,B,] [E,A,]2 [E,G,]2 | [A,,A,]6 z2 | %8
 [A,,A,]2 [A,,A,]2 [A,,E,][C,A,] [E,G,]2 | A,>A, A,>A, .A,4 | [D,A,]2 [D,A,]2 [D,A,]2 [D,A,]2 | %11
 [A,,A,]>[A,,A,] [A,,A,]>[A,,A,] .[A,,A,]4 | [A,C]>[A,C] [A,C][A,D] [A,C][A,,A,][B,,G,][C,A,] | %13
 [D,A,]2 [D,A,]2 [D,A,]4 | [E,A,]>[E,A,] [E,C]<[E,B,] [E,A,]2 [E,G,]2 | [A,,A,]8 |] %16

